X:1
T:Come to Me, O Blessèd Spirit
T:Annie M. Potter
T:Come to Me, O Blessèd Spirit
T:Public Domain
T:Public Domain
C:Annie M. Potter
Z:Public Domain
%%score ( 1 2 ) ( 3 4 )
L:1/8
M:4/4
K:D
V:1 treble 
V:2 treble 
V:3 bass 
V:4 bass 
V:1
 [DA]3 [DG] [DF]2 [CE]2 | D2 [DG]2 [DF]2 [CE]2 | (D2 z) A [DF]2 [FB]2 | [EA]2 [E^G]2 [EA]4 | %4
w: 1.~Come to me, O|bless- èd Spir- it,|ter Thou my heart|* I am|
w: 2.~Come to me in|all Thy full- ness,|pos- sess- ion of|* Take the|
w: 3.~Lov- ing Spir- it,|make me lov- ing,|my heart, and cleanse|* Sat- is-|
w: 4.~Ho- ly Ghost, I|now re- ceive Thee!|ac- cept Thy might-|* And, by|
 [Gc]3 [GB] [GA]2 [GB]2 | [Ac]2 [Ae]2 [Ad]2 [FA]2 | [GB]2 [EA]2 (DE) [DF]2 | [DE]2 (FG) [DF]4 || %8
w: long- ing to re-|ceive Thee, Come, and|with me ev- * er||
w: will I scarce can|yield Thee, Sanc- ti-|fy and cleanse * the|I am * wait-|
w: fy my rest- less|long- ings, Make me|fair and pure * with-|After~last~verse: * * *|
w: faith, I claim Thy|pre- sence In this|sol- emn, sac- * red|I be- * lieve|
[M:3/4]"^Refrain" D[DE] | [DF]2 D2 [DF][CG] | [DA]2 [DF]2 [DA][DA] | [DB]3 [GB] [EA][EG] | %12
w: ||||
w: I am|ing, Thine and on-|Thine to be; Make|my heart Thy liv-|
w: ||||
w: I be-|Thee! And the bless-|now I claim Of|Thy full- ness, gra-|
 [DF]4 [FA][FA] | [GB]2 [GB]2 [Gc][GB] | [GB]2 [FA]2 DD | [DE]2 [DE]2 [CF][CE] | [A,D]4 |] %17
w: |||||
w: ing tem- ple,|Come to- day and|dwell in me. *|||
w: |||||
w: cious Spir- it;|Glo- ry to Thy|ho- ly name! *|||
V:2
 x8 | D2 x6 | G3 E2 x3 | x8 | x8 | x8 | x4 G2 x2 | x2 C2 x4 ||[M:3/4] D x | x2 D2 x2 | x6 | x6 | %12
w: |En-|to- day;||||stay.||||||
w: |Take|my soul;||||whole.|ing,|will-|ly|||
w: |Melt|from sin,||||in.||||||
w: |I|y power;||||hour.|Thee!|lieve|ing|||
 x6 | x6 | x4 DD | x6 | x4 |] %17
w: |||||
w: |||||
w: |||||
w: |||||
V:3
 [D,F,]3 [D,B,] [D,A,]2 [A,,G,]2 | [B,,F,]2 [G,,B,]2 [A,,A,]2 [A,,A,]2 | %2
 [B,,G,]2 [C,E,]2 [D,A,]2 [D,B,]2 | [E,C]2 [E,B,]2 [A,,C]4 | [A,E]3 [A,D] [A,C]2 [A,D]2 | %5
 [G,E]2 [G,C]2 [F,D]2 [D,D]2 | [G,,D]2 [A,,C]2 ([B,,B,][C,A,]) [D,A,]2 | %7
 [G,,B,]2 [A,,A,]2 [D,A,]4 ||[M:3/4] [D,F,][D,G,] | [D,A,]2 [D,F,]2 [D,A,][E,A,] | %10
 [F,A,]2 [D,A,]2 [F,A,][F,A,] | G,3 [G,,D] [A,,C][C,A,] | [D,A,]4 [D,D][D,D] | %13
 [G,D]2 [G,D]2 [G,D][G,D] | [D,D]2 [D,D]2 [B,,F,][B,,F,] | [G,,B,]2 [G,,B,]2 [A,,A,][A,,G,] | %16
 [D,F,]4 |] %17
V:4
 x8 | x8 | x8 | x8 | x8 | x8 | x8 | x8 ||[M:3/4] x2 | x6 | x6 | G,3 x3 | x6 | x6 | x6 | x6 | x4 |] %17

